X:192014908352961
T:2-10-5-8-6-12-11-10-9-2-2-2-4-8-7-3
%%setfont-1 Courier-Bold 8
T:$1K.516f::96:142:113:53:80:37:147:123:120:121:26:9:73:168:23:83::$0
T:$1Perm. No.: 192014908352961$0
M:3/8
L:1/8
Q:1/8=111
%%staves [1 2]
V:1 clef=treble
V:2 clef=bass
K:C
%1
[V:1]|: ecG |\
[V:2]|: C,2z |\
%2
[V:1] cGe |\
[V:2] [E,2C,2]z |\
%3
[V:1] fdB |\
[V:2] [B,2G,2]z |\
%4
[V:1] [ec][e/c/][f/d/][ge] |\
[V:2] C,2z |\
%5
[V:1] d!turn!A^f |\
[V:2] C,2z |\
%6
[V:1] g/b/g/d/B |\
[V:2] [D,2B,,2]z |\
%7
[V:1] e/c'/b/g/a/^f/ \
[V:2] C,D,D,, \
%8a
[V:1]|1 [g2d2B2G2]z :|2
[V:2]|1 G,,G,/=F,/E,/D,/ :|2
%8b
[V:1] [g2d2B2G2]z |:\
[V:2] G,,B,/G,/^F,/E,/ |:\
%9
[V:1] d'a/^f/d/A/ |\
[V:2] [^F,2D,2][F,C,] |\
%10
[V:1] gb/g/d |\
[V:2] [G,2B,,2]z |\
%11
[V:1] [ec][ec][ec] |\
[V:2] C,/E,/G,/E,/C/C,/ |\
%12
[V:1] [ec][dB]z |\
[V:2] G,2G,, |\
%13
[V:1] gec |\
[V:2] [E,/C,/]G,/[E,/C,/]G,/[E,/C,/]G,/ |\
%14
[V:1] gf/e/d/c/ |\
[V:2] [E,2C,2][G,E,] |\
%15
[V:1] f/e/d/e/f/g/ |\
[V:2] A,/G,/F,/G,/A,/B,/ |\
%16
[V:1] c2z :|]
[V:2] C,G,,C,, :|]
